Catalina-dark/status/16/software-update-available-symbolic.svg

<svg width="16" height="16" enable-background="new" version="1.1" xmlns="http://www.w3.org/2000/svg">
<path d="m8 2c-0.63283 0.62447-1.2366 1.342-1.8798 1.9555h-2.1647v2.1647c-0.61359 0.64325-1.3309 1.247-1.9555 1.8798 0.62452 0.63288 1.3419 1.2623 1.9555 1.9056v2.1406h2.1647c0.64325 0.61359 1.247 1.3293 1.8798 1.9539 0.63288-0.62452 1.2623-1.3403 1.9056-1.9539l2.139-2e-3v-2.1389c0.61359-0.64326 1.3309-1.2727 1.9555-1.9056-0.62452-0.63289-1.3419-1.2365-1.9555-1.8798v-2.1663l-2.139 2e-3c-0.64326-0.61359-1.2727-1.3309-1.9056-1.9555zm0 2.8294 2.1116 3.1674h-0.0515-1.2361v3.3476l-1.6481-0.0257v-3.3219h-1.2361-0.0515c0.96092-1.4028 1.8501-2.7653 2.1116-3.1674z" enable-background="new" fill="#bebebe"/>
</svg>

<?xml version="1.0" encoding="UTF-8" standalone="no"?>
<!-- Created with Inkscape (http://www.inkscape.org/) -->

<svg
   xmlns:osb="http://www.openswatchbook.org/uri/2009/osb"
   xmlns:dc="http://purl.org/dc/elements/1.1/"
   xmlns:cc="http://creativecommons.org/ns#"
   xmlns:rdf="http://www.w3.org/1999/02/22-rdf-syntax-ns#"
   xmlns:svg="http://www.w3.org/2000/svg"
   xmlns="http://www.w3.org/2000/svg"
   xmlns:sodipodi="http://sodipodi.sourceforge.net/DTD/sodipodi-0.dtd"
   xmlns:inkscape="http://www.inkscape.org/namespaces/inkscape"
   sodipodi:docname="software-update-available-symbolic.svg"
   inkscape:export-filename="/home/sam/source-symbolic.png"
   inkscape:export-xdpi="270"
   inkscape:export-ydpi="270"
   height="16"
   id="svg7384"
   style="enable-background:new"
   version="1.1"
   inkscape:version="0.91 r13725"
   width="16">
  <sodipodi:namedview
     inkscape:bbox-nodes="true"
     inkscape:bbox-paths="false"
     bordercolor="#666666"
     borderlayer="false"
     borderopacity="1"
     inkscape:current-layer="svg7384"
     inkscape:cx="3.4035945"
     inkscape:cy="-7.1506145"
     gridtolerance="10"
     inkscape:guide-bbox="true"
     guidetolerance="10"
     id="namedview88"
     inkscape:object-nodes="true"
     inkscape:object-paths="true"
     objecttolerance="10"
     pagecolor="#f7f7f7"
     inkscape:pageopacity="1"
     inkscape:pageshadow="2"
     showborder="true"
     showgrid="false"
     showguides="true"
     inkscape:showpageshadow="false"
     inkscape:snap-bbox="true"
     inkscape:snap-bbox-edge-midpoints="false"
     inkscape:snap-bbox-midpoints="true"
     inkscape:snap-center="false"
     inkscape:snap-global="true"
     inkscape:snap-grids="true"
     inkscape:snap-intersection-paths="true"
     inkscape:snap-midpoints="true"
     inkscape:snap-nodes="true"
     inkscape:snap-object-midpoints="true"
     inkscape:snap-others="true"
     inkscape:snap-page="false"
     inkscape:snap-smooth-nodes="true"
     inkscape:snap-to-guides="true"
     inkscape:window-height="711"
     inkscape:window-maximized="1"
     inkscape:window-width="1366"
     inkscape:window-x="0"
     inkscape:window-y="27"
     inkscape:zoom="16">
    <inkscape:grid
       color="#000000"
       dotted="false"
       empcolor="#0800ff"
       empopacity="0.4627451"
       empspacing="4"
       enabled="true"
       id="grid4866"
       opacity="0.16470588"
       originx="-164.0002"
       originy="-592.00336"
       snapvisiblegridlinesonly="true"
       spacingx="0.25px"
       spacingy="0.25px"
       type="xygrid"
       visible="true" />
  </sodipodi:namedview>
  <metadata
     id="metadata90">
    <rdf:RDF>
      <cc:Work
         rdf:about="">
        <dc:format>image/svg+xml</dc:format>
        <dc:type
           rdf:resource="http://purl.org/dc/dcmitype/StillImage" />
        <dc:title>Paper Symbolic Icon Theme</dc:title>
      </cc:Work>
    </rdf:RDF>
  </metadata>
  <title
     id="title8473">Paper Symbolic Icon Theme</title>
  <defs
     id="defs7386">
    <linearGradient
       id="linearGradient5606"
       osb:paint="solid">
      <stop
         id="stop5608"
         offset="0"
         style="stop-color:#000000;stop-opacity:1;" />
    </linearGradient>
  </defs>
  <path
     inkscape:connector-curvature="0"
     d="M 8,2 C 7.36717,2.62447 6.7634,3.342 6.12017,3.95547 l -2.1647,0 0,2.1647 C 3.34188,6.76342 2.62455,7.36715 2,8 2.62452,8.63288 3.34192,9.26228 3.95547,9.90558 l 0,2.14056 2.1647,0 C 6.76342,12.65973 7.36715,13.37545 8,14 8.63288,13.37548 9.26228,12.65969 9.90558,12.04614 l 2.13895,-0.002 0,-2.13894 C 12.65812,9.26194 13.37545,8.63247 14,7.99962 13.37548,7.36673 12.65808,6.76308 12.04453,6.11979 l 0,-2.16631 -2.13895,0.002 C 9.26232,3.34189 8.63285,2.62456 8,2.00001 Z m 0,2.8294 2.11159,3.16738 -0.0515,0 -1.23606,0 0,3.34764 -1.64806,-0.0257 0,-3.32189 -1.23606,0 -0.0515,0 C 6.84933,6.59398 7.73853,5.23152 8,4.82945 Z"
     id="path6775"
     style="display:inline;fill:#bebebe;fill-opacity:1;stroke:none;enable-background:new" />
</svg>
